public/static/icons/ic_paypal.svg

<svg height="24" viewBox="0 0 36 24" width="36" xmlns="http://www.w3.org/2000/svg"><g fill="none" fill-rule="evenodd"><rect fill="#fff" height="24" rx="4" width="36"/><g fill-rule="nonzero" transform="translate(9 2)"><path d="m5.34 19.32.35-2.2h-.78-3.68l2.56-16.26c.00682838-.05037788.03170014-.0965683.07-.13.04019855-.031064.08921759-.0485708.14-.05h6.21c2.07 0 3.49.43 4.24 1.28.3318632.35652804.5630785.79480195.67 1.27.116633.57750337.116633 1.17249663 0 1.75v.5l.35.2c.2664475.13280166.5069202.31230947.71.53.3056688.36899583.5029846.81555265.57 1.29.0749064.62021554.0478831 1.24850659-.08 1.86-.1318852.7427933-.3924656 1.4568512-.77 2.11-.3051005.5236492-.7174473.97689-1.21 1.33-.4957517.3380558-1.0476808.5852387-1.63.73-.6537145.1649061-1.3258296.2455599-2 .24h-.49c-.3434298.0000497-.67600294.1203421-.94.34-.26537373.2236061-.43968093.5366476-.49.88v.2l-.61 3.88v.15c.00724224.0261749.00724224.0538251 0 .08h-.06z" fill="#253d80"/><path d="m15.8 5.08-.06.37c-.82 4.2-3.63 5.66-7.21 5.66h-1.82c-.43789688-.0005314-.81111762.3175544-.88.75l-.93 5.92-.27 1.68c-.02026919.134528.01874852.2712389.10697006.3748033s.21699048.1638205.35302994.1651967h3.24c.38417983-.0003517.71089555-.2803937.77-.66v-.16l.61-3.87v-.21c.05456567-.3780521.3780318-.6589569.76-.66h.53c3.13 0 5.59-1.27 6.3-5 .3841623-1.27485443.1471618-2.65612343-.64-3.73-.2497932-.25618442-.5404174-.46908355-.86-.63z" fill="#189bd7"/><path d="m14.94 4.74-.38-.1-.42-.08c-.5295561-.07918829-1.0645892-.11597181-1.6-.11h-4.88c-.11399123-.00312873-.22709543.02086307-.33.07-.2318804.10856003-.39351455.32657819-.43.58l-1 6.57v.19c.06888238-.4324456.44210312-.7505314.88-.75h1.82c3.58 0 6.39-1.46 7.21-5.66l.06-.37c-.2153888-.11130922-.439458-.20495007-.67-.28z" fill="#242e65"/><path d="m6.9 5.1c.03648545-.25342181.1981196-.47143997.43-.58.10290457-.04913693.21600877-.07312873.33-.07h4.88c.5354108-.00597181 1.0704439.03081171 1.6.11l.42.08.38.1.19.06c.230542.07504993.4546112.16869078.67.28.3250509-1.24937312.0271356-2.57881993-.8-3.57-1-1.06-2.64-1.51000066-4.78-1.51000066h-6.22c-.43789688-.00053077-.81111762.31755508-.88.75000066l-2.59 16.41c-.02318657.1547524.02189578.3119533.12357341.4308969.10167762.1189437.24995117.1879327.40642659.1891031h3.84l1-6.11z" fill="#253d80"/></g></g></svg>

<svg xmlns="http://www.w3.org/2000/svg" width="36" height="24" viewBox="0 0 36 24">
  <g fill="none" fill-rule="evenodd">
    <rect width="36" height="24" fill="#FFF" rx="4"/>
    <g fill-rule="nonzero" transform="translate(9 2)">
      <path fill="#253D80" d="M5.34,19.32 L5.69,17.12 L4.91,17.12 L1.23,17.12 L3.79,0.86 C3.79682838,0.809622115 3.82170014,0.763431702 3.86,0.73 C3.90019855,0.698936001 3.94921759,0.681429199 4,0.68 L10.21,0.68 C12.28,0.68 13.7,1.11 14.45,1.96 C14.7818632,2.31652804 15.0130785,2.75480195 15.12,3.23 C15.236633,3.80750337 15.236633,4.40249663 15.12,4.98 L15.12,5.48 L15.47,5.68 C15.7364475,5.81280166 15.9769202,5.99230947 16.18,6.21 C16.4856688,6.57899583 16.6829846,7.02555265 16.75,7.5 C16.8249064,8.12021554 16.7978831,8.74850659 16.67,9.36 C16.5381148,10.1027933 16.2775344,10.8168512 15.9,11.47 C15.5948995,11.9936492 15.1825527,12.44689 14.69,12.8 C14.1942483,13.1380558 13.6423192,13.3852387 13.06,13.53 C12.4062855,13.6949061 11.7341704,13.7755599 11.06,13.77 L10.57,13.77 C10.2265702,13.7700497 9.89399706,13.8903421 9.63,14.11 C9.36462627,14.3336061 9.19031907,14.6466476 9.14,14.99 L9.14,15.19 L8.53,19.07 L8.53,19.22 C8.53724224,19.2461749 8.53724224,19.2738251 8.53,19.3 L8.47,19.3 L5.34,19.32 Z"/>
      <path fill="#189BD7" d="M15.8,5.08 L15.74,5.45 C14.92,9.65 12.11,11.11 8.53,11.11 L6.71,11.11 C6.27210312,11.1094686 5.89888238,11.4275544 5.83,11.86 L4.9,17.78 L4.63,19.46 C4.60973081,19.594528 4.64874852,19.7312389 4.73697006,19.8348033 C4.8251916,19.9383677 4.95396054,19.9986238 5.09,20 L8.33,20 C8.71417983,19.9996483 9.04089555,19.7196063 9.1,19.34 L9.1,19.18 L9.71,15.31 L9.71,15.1 C9.76456567,14.7219479 10.0880318,14.4410431 10.47,14.44 L11,14.44 C14.13,14.44 16.59,13.17 17.3,9.44 C17.6841623,8.16514557 17.4471618,6.78387657 16.66,5.71 C16.4102068,5.45381558 16.1195826,5.24091645 15.8,5.08 L15.8,5.08 Z"/>
      <path fill="#242E65" d="M14.94,4.74 L14.56,4.64 L14.14,4.56 C13.6104439,4.48081171 13.0754108,4.44402819 12.54,4.45 L7.66,4.45 C7.54600877,4.44687127 7.43290457,4.47086307 7.33,4.52 C7.0981196,4.62856003 6.93648545,4.84657819 6.9,5.1 L5.9,11.67 L5.9,11.86 C5.96888238,11.4275544 6.34210312,11.1094686 6.78,11.11 L8.6,11.11 C12.18,11.11 14.99,9.65 15.81,5.45 L15.87,5.08 C15.6546112,4.96869078 15.430542,4.87504993 15.2,4.8 L14.94,4.74 Z"/>
      <path fill="#253D80" d="M6.9,5.1 C6.93648545,4.84657819 7.0981196,4.62856003 7.33,4.52 C7.43290457,4.47086307 7.54600877,4.44687127 7.66,4.45 L12.54,4.45 C13.0754108,4.44402819 13.6104439,4.48081171 14.14,4.56 L14.56,4.64 L14.94,4.74 L15.13,4.8 C15.360542,4.87504993 15.5846112,4.96869078 15.8,5.08 C16.1250509,3.83062688 15.8271356,2.50118007 15,1.51 C14,0.45 12.36,-6.64913074e-07 10.22,-6.64913074e-07 L4,-6.64913074e-07 C3.56210312,-0.00053143207 3.18888238,0.317554419 3.12,0.75 L0.53,17.16 C0.50681343,17.3147524 0.551895782,17.4719533 0.653573408,17.5908969 C0.755251034,17.7098406 0.903524575,17.7788296 1.06,17.78 L4.9,17.78 L5.9,11.67 L6.9,5.1 Z"/>
    </g>
  </g>
</svg>
